X: 10
T:My Son's A Prawn
% Nottingham Music Database
S:Kevin Briggs, via EF
M:4/4
L:1/4
K:A
P:A
[e/2g/2][d/2f/2]|"A"[ce][Ac] [A/2c/2][B/2d/2][A/2c/2][F/2A/2]|"A"[E/2A/2][F/2A/2][A/2c/2][B/2d/2] [d/2f/2][c/2e/2][B/2d/2][A/2c/2]|"Bm"[df][Bd] [B/2d/2][c/2e/2][B/2d/2][A/2c/2]|\
"E7"[B/2d/2][c/2e/2][d/2e/2][e/2g/2] [g/2b/2][f/2a/2][e/2g/2][d/2e/2]|
"A"[ce][Ac] [A/2c/2][B/2d/2][A/2c/2][F/2A/2]|"A"[E/2A/2][F/2A/2][A/2c/2][B/2d/2] [d/2f/2][c/2e/2][B/2d/2][A/2c/2]|"D"[B/2d/2][c/2e/2][d/2f/2][e/2g/2] [f/2a/2][e/2g/2][f/2a/2][a/2d'/2]|\
"E7"[e/2g/2][d/2e/2][c/2e/2][B/2d/2] "A"A::
P:B
[e/2a/2][d/2f/2]|"A"[c/2e/2][A/2c/2][e/2a/2][A/2c/2] [f/2a/2][A/2c/2][e/2a/2][A/2c/2]|"A"[c/2e/2][A/2c/2][e/2a/2][A/2c/2] [f/2a/2][e/2a/2][d/2f/2][c/2e/2]|\
"Bm"[d/2f/2][B/2d/2][f/2b/2][B/2d/2] [g/2b/2][B/2d/2][f/2b/2][B/2d/2]|"Bm"[d/2f/2][B/2d/2][f/2b/2][B/2d/2] "E7"[g/2b/2][f/2a/2][e/2g/2][d/2e/2]|
"A"[c/2e/2][A/2c/2][e/2a/2][A/2c/2] [f/2a/2][A/2c/2][e/2a/2][A/2c/2]|"A"[c/2e/2][A/2c/2][e/2a/2][A/2c/2] [f/2a/2][e/2a/2][d/2f/2][c/2e/2]|\
"D"[B/2d/2][c/2e/2][d/2f/2][e/2g/2] [f/2a/2][e/2g/2][f/2a/2][a/2d'/2]|"E7"[e/2g/2][d/2e/2][c/2e/2][B/2d/2] "A"A:|


